images/catalog/button.svg

<svg width="160" height="38" viewBox="0 0 160 38" fill="none" xmlns="http://www.w3.org/2000/svg">
<g clip-path="url(#clip0_24196_805)">
<rect y="0.720819" width="160" height="37" rx="4" fill="#756257"/>
<path d="M37.9828 20.0248L34.8628 14.5208H37.5028L39.2308 17.7528L39.6148 18.8888L39.9828 17.7528L41.7908 14.5208H44.1748L40.9428 19.9128L44.3348 25.7208H41.7268L39.7588 22.2648L39.3268 21.0808L38.9108 22.2648L36.9268 25.7208H34.5428L37.9828 20.0248ZM44.8971 20.1208C44.8971 18.2542 45.3077 16.8195 46.1291 15.8168C46.9504 14.8035 48.1237 14.2968 49.6491 14.2968C50.4491 14.2968 51.1477 14.4355 51.7451 14.7128C52.3424 14.9902 52.8384 15.3848 53.2331 15.8968C53.6277 16.4088 53.9211 17.0222 54.1131 17.7368C54.3051 18.4515 54.4011 19.2462 54.4011 20.1208C54.4011 21.9875 53.9851 23.4275 53.1531 24.4408C52.3317 25.4435 51.1637 25.9448 49.6491 25.9448C48.8384 25.9448 48.1344 25.8062 47.5371 25.5288C46.9397 25.2515 46.4437 24.8568 46.0491 24.3448C45.6651 23.8328 45.3771 23.2195 45.1851 22.5048C44.9931 21.7902 44.8971 20.9955 44.8971 20.1208ZM47.2011 20.1208C47.2011 20.6862 47.2491 21.2088 47.3451 21.6888C47.4411 22.1582 47.5851 22.5635 47.7771 22.9048C47.9797 23.2462 48.2357 23.5128 48.5451 23.7048C48.8544 23.8968 49.2224 23.9928 49.6491 23.9928C50.4277 23.9928 51.0304 23.6888 51.4571 23.0808C51.8837 22.4728 52.0971 21.4862 52.0971 20.1208C52.0971 19.5768 52.0491 19.0702 51.9531 18.6008C51.8677 18.1315 51.7291 17.7208 51.5371 17.3688C51.3451 17.0168 51.0944 16.7448 50.7851 16.5528C50.4757 16.3502 50.0971 16.2488 49.6491 16.2488C48.8704 16.2488 48.2677 16.5635 47.8411 17.1928C47.4144 17.8115 47.2011 18.7875 47.2011 20.1208ZM57.9358 14.5208V18.0728C57.9358 18.7128 58.0585 19.1928 58.3038 19.5128C58.5598 19.8222 58.9758 19.9768 59.5518 19.9768C59.9571 19.9768 60.3358 19.9342 60.6878 19.8488C61.0505 19.7528 61.3385 19.6142 61.5518 19.4328V14.5208H63.7438V25.7208H61.5518V21.2088C61.2745 21.3688 60.9011 21.5182 60.4318 21.6568C59.9731 21.7848 59.4238 21.8488 58.7838 21.8488C58.3358 21.8488 57.9251 21.7955 57.5518 21.6888C57.1891 21.5715 56.8691 21.3902 56.5918 21.1448C56.3251 20.8888 56.1171 20.5688 55.9678 20.1848C55.8185 19.7902 55.7438 19.3155 55.7438 18.7608V14.5208H57.9358ZM69.4149 19.4648L69.7349 20.9208H69.8309L70.0869 19.4168L71.7669 14.5208H74.0229L71.0469 22.2648C70.8123 22.8728 70.5829 23.4008 70.3589 23.8488C70.1456 24.2968 69.9109 24.6702 69.6549 24.9688C69.4096 25.2568 69.1323 25.4755 68.8229 25.6248C68.5136 25.7635 68.1509 25.8328 67.7349 25.8328C67.3829 25.8328 67.0949 25.8062 66.8709 25.7528C66.6576 25.7102 66.4229 25.6088 66.1669 25.4488L66.7269 23.6728C66.9083 23.7688 67.0736 23.8275 67.2229 23.8488C67.3723 23.8702 67.5323 23.8808 67.7029 23.8808C68.2043 23.8808 68.5563 23.4862 68.7589 22.6968L64.5669 14.5208H67.1429L69.4149 19.4648ZM85.7081 25.2568C85.3667 25.5022 84.9294 25.6782 84.3961 25.7848C83.8734 25.8915 83.3347 25.9448 82.7801 25.9448C82.1081 25.9448 81.4681 25.8435 80.8601 25.6408C80.2627 25.4275 79.7347 25.0915 79.2761 24.6328C78.8174 24.1635 78.4494 23.5608 78.1721 22.8248C77.9054 22.0782 77.7721 21.1768 77.7721 20.1208C77.7721 19.0222 77.9214 18.1048 78.2201 17.3688C78.5294 16.6222 78.9241 16.0248 79.4041 15.5768C79.8947 15.1182 80.4387 14.7928 81.0361 14.6008C81.6334 14.3982 82.2307 14.2968 82.8281 14.2968C83.4681 14.2968 84.0067 14.3395 84.4441 14.4248C84.8921 14.5102 85.2601 14.6115 85.5481 14.7288L85.1161 16.5848C84.8707 16.4675 84.5774 16.3822 84.2361 16.3288C83.9054 16.2755 83.5001 16.2488 83.0201 16.2488C82.1347 16.2488 81.4201 16.5635 80.8761 17.1928C80.3427 17.8222 80.0761 18.7982 80.0761 20.1208C80.0761 20.6968 80.1401 21.2248 80.2681 21.7048C80.3961 22.1742 80.5881 22.5795 80.8441 22.9208C81.1107 23.2515 81.4361 23.5128 81.8201 23.7048C82.2147 23.8862 82.6681 23.9768 83.1801 23.9768C83.6601 23.9768 84.0654 23.9288 84.3961 23.8328C84.7267 23.7368 85.0147 23.6142 85.2601 23.4648L85.7081 25.2568ZM89.2536 19.0808H90.7416C90.8802 17.5555 91.3282 16.3768 92.0856 15.5448C92.8429 14.7128 93.9042 14.2968 95.2696 14.2968C96.0802 14.2968 96.7736 14.4355 97.3496 14.7128C97.9256 14.9902 98.3949 15.3848 98.7576 15.8968C99.1309 16.4088 99.4029 17.0222 99.5736 17.7368C99.7549 18.4515 99.8456 19.2462 99.8456 20.1208C99.8456 21.9875 99.4616 23.4275 98.6936 24.4408C97.9256 25.4435 96.7842 25.9448 95.2696 25.9448C94.5656 25.9448 93.9416 25.8275 93.3976 25.5928C92.8642 25.3582 92.4109 25.0275 92.0376 24.6008C91.6642 24.1742 91.3709 23.6568 91.1576 23.0488C90.9442 22.4408 90.8056 21.7688 90.7416 21.0328H89.2536V25.7208H87.0616V14.5208H89.2536V19.0808ZM92.9816 20.1208C92.9816 20.6862 93.0189 21.2088 93.0936 21.6888C93.1789 22.1582 93.3069 22.5635 93.4776 22.9048C93.6589 23.2462 93.8936 23.5128 94.1816 23.7048C94.4802 23.8968 94.8429 23.9928 95.2696 23.9928C96.0482 23.9928 96.6189 23.6888 96.9816 23.0808C97.3549 22.4728 97.5416 21.4862 97.5416 20.1208C97.5416 19.5768 97.5042 19.0702 97.4296 18.6008C97.3656 18.1315 97.2482 17.7208 97.0776 17.3688C96.9069 17.0168 96.6722 16.7448 96.3736 16.5528C96.0856 16.3502 95.7176 16.2488 95.2696 16.2488C94.5016 16.2488 93.9256 16.5635 93.5416 17.1928C93.1682 17.8115 92.9816 18.7875 92.9816 20.1208ZM110.948 27.7208H109.396L109.156 25.7208H101.956L101.716 27.7208H100.164V23.7688H101.348C101.423 23.6515 101.545 23.3902 101.716 22.9848C101.887 22.5795 102.057 22.0088 102.228 21.2728C102.399 20.5262 102.543 19.5982 102.66 18.4888C102.777 17.3688 102.831 16.0462 102.82 14.5208H109.524V23.7688H110.948V27.7208ZM107.332 23.7688V16.4728H104.852C104.788 18.3715 104.633 19.9288 104.388 21.1448C104.153 22.3502 103.913 23.2248 103.668 23.7688H107.332ZM117.707 23.2408H114.267L113.419 25.7208H111.227L115.259 14.4408H116.875L120.907 25.7208H118.603L117.707 23.2408ZM114.827 21.4808H117.227L116.395 18.9848L116.059 17.2248H115.979L115.643 19.0008L114.827 21.4808ZM122.514 14.5208H124.658V19.7848L124.242 22.3928H122.93L122.514 19.7848V14.5208ZM122.29 24.6648C122.29 24.2915 122.407 23.9982 122.642 23.7848C122.877 23.5608 123.186 23.4488 123.57 23.4488C123.975 23.4488 124.295 23.5608 124.53 23.7848C124.765 23.9982 124.882 24.2915 124.882 24.6648C124.882 25.0382 124.765 25.3368 124.53 25.5608C124.295 25.7848 123.975 25.8968 123.57 25.8968C123.186 25.8968 122.877 25.7848 122.642 25.5608C122.407 25.3368 122.29 25.0382 122.29 24.6648Z" fill="white"/>
</g>
<defs>
<clipPath id="clip0_24196_805">
<rect width="160" height="37.242" fill="white" transform="translate(0 0.720819)"/>
</clipPath>
</defs>
</svg>

<svg width="160" height="38" fill="none" xmlns="http://www.w3.org/2000/svg"><g clip-path="url(#a)"><rect y=".72" width="160" height="37" rx="4" fill="#756257"/><path d="m37.98 20.02-3.12-5.5h2.64l1.73 3.23.38 1.14.37-1.14 1.81-3.23h2.38l-3.23 5.4 3.4 5.8h-2.61l-1.97-3.46-.43-1.18-.42 1.18-1.98 3.46h-2.39l3.44-5.7Zm6.92.1c0-1.87.4-3.3 1.23-4.3.82-1.02 2-1.52 3.52-1.52.8 0 1.5.14 2.1.41.6.28 1.09.67 1.48 1.19.4.5.7 1.12.88 1.84.2.71.3 1.5.3 2.38 0 1.87-.42 3.3-1.26 4.32-.82 1-1.99 1.5-3.5 1.5-.81 0-1.52-.13-2.11-.41-.6-.28-1.1-.67-1.5-1.19a5.34 5.34 0 0 1-.85-1.84c-.2-.71-.3-1.5-.3-2.38Zm2.3 0a8 8 0 0 0 .15 1.57c.1.47.24.87.43 1.21A2.05 2.05 0 0 0 49.65 24c.78 0 1.38-.3 1.8-.9.43-.62.65-1.6.65-2.97 0-.54-.05-1.05-.15-1.52a4.09 4.09 0 0 0-.41-1.23 2.03 2.03 0 0 0-1.89-1.12c-.78 0-1.38.31-1.8.94-.44.62-.65 1.6-.65 2.93Zm10.74-5.6v3.55c0 .64.12 1.12.36 1.44.26.31.68.47 1.25.47.4 0 .79-.05 1.14-.13.36-.1.65-.24.86-.42v-4.9h2.2v11.2h-2.2V21.2a5.28 5.28 0 0 1-2.77.64c-.44 0-.85-.05-1.23-.16-.36-.12-.68-.3-.96-.55a2.63 2.63 0 0 1-.62-.96c-.15-.39-.23-.86-.23-1.42v-4.24h2.2Zm11.47 4.94.32 1.46h.1l.26-1.5 1.68-4.9h2.25l-2.97 7.74c-.24.61-.47 1.14-.7 1.59-.2.45-.44.82-.7 1.12-.24.29-.52.5-.83.65-.3.14-.67.21-1.09.21-.35 0-.64-.02-.86-.08a2.16 2.16 0 0 1-.7-.3l.56-1.78c.18.1.34.16.5.18.14.02.3.03.47.03.5 0 .86-.4 1.06-1.18l-4.2-8.18h2.58l2.27 4.94Zm16.3 5.8c-.34.24-.78.42-1.31.52-.53.11-1.07.16-1.62.16-.67 0-1.31-.1-1.92-.3a4.23 4.23 0 0 1-1.58-1 5.14 5.14 0 0 1-1.1-1.82 8.07 8.07 0 0 1-.4-2.7c0-1.1.14-2.02.44-2.75.3-.75.7-1.35 1.18-1.8a4.3 4.3 0 0 1 1.64-.97c.6-.2 1.2-.3 1.79-.3.64 0 1.18.04 1.61.12.45.09.82.2 1.1.3l-.42 1.86c-.25-.11-.54-.2-.88-.25a7.8 7.8 0 0 0-1.22-.08c-.89 0-1.6.31-2.14.94-.54.63-.8 1.6-.8 2.93 0 .58.06 1.1.19 1.58.13.47.32.88.57 1.22.27.33.6.6.98.78.4.19.85.28 1.36.28.48 0 .89-.05 1.22-.15.33-.1.61-.22.86-.37l.45 1.8Zm3.54-6.18h1.5a5.9 5.9 0 0 1 1.34-3.54 4.09 4.09 0 0 1 3.18-1.24c.81 0 1.5.14 2.08.41.58.28 1.04.67 1.4 1.19.38.5.65 1.12.82 1.84.18.71.28 1.5.28 2.38 0 1.87-.39 3.3-1.16 4.32-.76 1-1.9 1.5-3.42 1.5-.7 0-1.33-.11-1.87-.35a3.83 3.83 0 0 1-1.36-.99 4.68 4.68 0 0 1-.88-1.55 8.23 8.23 0 0 1-.42-2.02h-1.49v4.7h-2.19v-11.2h2.2v4.55Zm3.73 1.04c0 .57.04 1.09.11 1.57.09.47.22.87.39 1.21.18.35.41.61.7.8.3.2.66.3 1.09.3.78 0 1.35-.31 1.71-.92.37-.6.56-1.6.56-2.96a9.7 9.7 0 0 0-.11-1.52 4.08 4.08 0 0 0-.35-1.23 1.87 1.87 0 0 0-1.8-1.12 1.9 1.9 0 0 0-1.74.94c-.37.62-.56 1.6-.56 2.93Zm17.97 7.6h-1.55l-.24-2h-7.2l-.24 2h-1.56v-3.95h1.19a11.05 11.05 0 0 0 .88-2.5c.17-.74.31-1.67.43-2.78.12-1.12.17-2.44.16-3.97h6.7v9.25h1.43v3.95Zm-3.62-3.95v-7.3h-2.48a29.4 29.4 0 0 1-.46 4.67 13 13 0 0 1-.72 2.63h3.66Zm10.38-.53h-3.44l-.85 2.48h-2.2l4.04-11.28h1.61l4.04 11.28h-2.3l-.9-2.48Zm-2.88-1.76h2.4l-.84-2.5-.33-1.76h-.08l-.34 1.78-.81 2.48Zm7.68-6.96h2.15v5.26l-.42 2.61h-1.31l-.42-2.6v-5.27Zm-.22 10.14c0-.37.12-.66.35-.88.24-.22.55-.33.93-.33.4 0 .73.11.96.33.23.22.35.51.35.88 0 .38-.11.68-.35.9-.23.22-.56.34-.96.34-.38 0-.7-.12-.93-.34a1.18 1.18 0 0 1-.35-.9Z" fill="#fff"/></g><defs><clipPath id="a"><path fill="#fff" transform="translate(0 .72)" d="M0 0h160v37.24H0z"/></clipPath></defs></svg>
